X:1
T:Air on a G string
T:Air on a G string
T:J.S. Bach
T:2CELLOS
C:2CELLOS
%%score 1 2
L:1/8
Q:1/4=60
M:4/4
K:D
V:1 tenor nm="Violoncelle" snm="Vc."
V:2 bass nm="Violoncelle" snm="Vc."
V:1
 F8- | F8- | F2 BG{F} EDCD |{E} D TC3 B, A,3 | A8- | AF=CB, E^DAG | G8- | GEB,A, DCGF | F6 ^GA | %9
 D2 D/E/F FEED | CB, B,/C/D D2 PCB, |!>(! A,8!>)! |[K:bass] D,2 D2 C2 C,2 | B,,2 B,2 A,2 A,,2 | %14
 G,,2 G,2 ^G,2 ^G,,2 | A,,2 A,2 G,2 G,,2 | F,,2 =CB, [E,C]2 z C | [^D,B,]2 D,2 B,,2 B,2 | %18
 E,2 ED [D,E]FGE | [C,A,]2 C,2 A,,2 A,2 | D,2 D2 C2 C,2 | B,,2 B,2 ^G,2 E,2 | A,2 D,2 E,2 E,,2 | %23
 !fermata!A,,8 | A,,2 A,2 G,2 G,,2 | F,,2 F,2 E,2 E,,2 | ^D,,2 ^D,2 B,,2 B,2 | E,2 E2 D2 D,2 | %28
 C,D,E,F, G,F,G,E, | F,2 E,D, C,2 ^A,,2 | B,,2 G,,2 E,,2 F,,2 | B,,2 B,2 A,2 A,,2 | %32
[K:tenor] D4- DF E>D | B6 A^G | F/E/A A,2 B,3 C/D/ | TC3 B, A,2 z2 | D6 F>E | E6 G>F | F6 A>G | %39
 G8 | A,4- A,CEG | GE F4 FG/A/ | D4-"^rall." DFA!fermata!=c | =c2 B4 D2 | CE G4 B,2 | %45
 A,2 (3EFG"^rall." GFFE | D/C/B,- B,C D2 TC>D | !fermata!D8 |] %48
V:2
 D,2 D2 C2 C,2 | B,,2 B,2 A,2 A,,2 | G,,2 G,2 ^G,2 ^G,,2 | A,,2 A,2 G,2 G,,2 | %4
 F,,2 =CB, [E,C]2 z C | [^D,B,]2 D,2 B,,2 B,2 | E,,2 ED [D,E]FGE | [C,A,]2 C,2 A,,2 A,2 | %8
 D,2 D2 C2 C,2 | B,,2 B,2 ^G,2 E,2 | A,2 D,2 E,2 E,,2 | A,,B,,C,D, E,G,F,E, |[K:tenor] F8- | F8- | %14
 F2 BG{F} EDCD |{E} D TC3 B, A,3 | A8- | AF=CB, E^DAG | G8- | GEB,A, DCGF | F6 ^GA | %21
 D2 D/E/F FEED | CB, B,/C/D D2 CB, | !fermata!A,8 | C4- CD/C/ B,/C/A, | A6 =C2 | B,2 B3 AGF | %27
 FPG- G2- G/F/E/D/ CB, | ^A,B, C3 D E2- | EF G4 F2 | EDCB, CD/E/ D2 |{C} B,8 | %32
[K:bass] ^G,,2 ^G,2 F,2 F,,2 | E,,2 E,2 D,2 D,2 | C,4 D,2 E,2 | A,,2 A,2 G,2 G,,2 | %36
 F,,2 [F,B,]=C [G,B,]^C D2 | ^G,,2 [^G,C]B, [A,C]^D E2 | ^A,,2 [^A,^D]C [B,D]E F2 | E,2 E2 D2 D,2 | %40
 C,2 C2 A,2 C2 | D2 D,2 =C,2 =C2 | B,2 B,,2"^rall." A,,2 !fermata!A,2 | G,,2 G,2 F,2 F,,2 | %44
 E,,2 E,2 D,2 D,2 | C,2 A,,2"^rall." D,2 G,,2 | A,2 G,2 A,2 A,,2 | D,8 |] %48

